styles/4/Numix/32/places/brown-folder-art.svg

<?xml version="1.0" encoding="UTF-8" standalone="no"?>
<!-- Created with Inkscape (http://www.inkscape.org/) -->

<svg
   xmlns:dc="http://purl.org/dc/elements/1.1/"
   xmlns:cc="http://creativecommons.org/ns#"
   xmlns:rdf="http://www.w3.org/1999/02/22-rdf-syntax-ns#"
   xmlns:svg="http://www.w3.org/2000/svg"
   xmlns="http://www.w3.org/2000/svg"
   xmlns:sodipodi="http://sodipodi.sourceforge.net/DTD/sodipodi-0.dtd"
   xmlns:inkscape="http://www.inkscape.org/namespaces/inkscape"
   width="32"
   height="32"
   id="svg2"
   version="1.1"
   inkscape:version="0.91 r"
   sodipodi:docname="brown-folder-art.svg"
   inkscape:export-filename="/media/Data/Main/Visuals/Icons/Numix/Desktop/repos/numix-wiki/Gjorgi/Numix-folders/48/New/folder-144.png"
   inkscape:export-xdpi="270"
   inkscape:export-ydpi="270">
  <defs
     id="defs4" />
  <sodipodi:namedview
     id="base"
     pagecolor="#ffffff"
     bordercolor="#666666"
     borderopacity="1.0"
     inkscape:pageopacity="0.0"
     inkscape:pageshadow="2"
     inkscape:zoom="13.399674"
     inkscape:cx="5.7026993"
     inkscape:cy="11.315362"
     inkscape:document-units="px"
     inkscape:current-layer="layer1"
     showgrid="true"
     inkscape:window-width="1280"
     inkscape:window-height="998"
     inkscape:window-x="0"
     inkscape:window-y="0"
     inkscape:window-maximized="1"
     showguides="true"
     inkscape:guide-bbox="true">
    <inkscape:grid
       type="xygrid"
       id="grid2985"
       empspacing="5"
       visible="true"
       enabled="true"
       snapvisiblegridlinesonly="true" />
  </sodipodi:namedview>
  <metadata
     id="metadata7">
    <rdf:RDF>
      <cc:Work
         rdf:about="">
        <dc:format>image/svg+xml</dc:format>
        <dc:type
           rdf:resource="http://purl.org/dc/dcmitype/StillImage" />
        <dc:title />
      </cc:Work>
    </rdf:RDF>
  </metadata>
  <g
     inkscape:label="Layer 1"
     inkscape:groupmode="layer"
     id="layer1"
     transform="translate(0,-1020.3622)">
    <path
       style="fill:#5d4037;fill-opacity:1;stroke:none"
       d="m 4,1025.3622 23.5,0 c 1,0 1.5,0.4999 1.5,1.4996 l 0,3.4991 c 0,0.5538 -0.4737,0.4998 -1,0.4998 l -24,0 c -0.5263,0 -1,-0.4459 -1,-0.9997 l 0,-4.4988 z"
       id="path3811"
       inkscape:connector-curvature="0"
       sodipodi:nodetypes="csssssscc" />
    <path
       style="opacity:0.02999998;fill:#000000;fill-opacity:1;stroke:none"
       d="m 3,1028.3622 0,2.5 26,0 0,-2.5 z"
       id="path3807"
       inkscape:connector-curvature="0" />
    <path
       style="fill:#5d4037;fill-opacity:1;stroke:none"
       d="m 3,1027.3622 0,-2.5 c 0,-1 0.4545455,-1.5 0.9090909,-1.5 l 5.1818181,0 c 0.454546,0 0.909091,0.5 0.909091,1.5 l 0,2.5 z"
       id="rect3760"
       inkscape:connector-curvature="0"
       sodipodi:nodetypes="csssscc" />
    <rect
       style="fill:#8d6e63;fill-opacity:1;stroke:none"
       id="rect2990"
       width="30"
       height="20"
       x="1"
       y="1029.3622"
       rx="2"
       ry="1.6666666" />
    <path
       style="opacity:0.1;fill:#ffffff;fill-opacity:1;stroke:none"
       d="m 3,1029.3622 c -1.108,0 -2,0.7485 -2,1.6719 l 0,1 c 0,-0.9234 0.892,-1.6719 2,-1.6719 l 26,0 c 1.108,0 2,0.7485 2,1.6719 l 0,-1 c 0,-0.9234 -0.892,-1.6719 -2,-1.6719 l -26,0 z"
       id="rect3004"
       inkscape:connector-curvature="0" />
    <path
       style="opacity:0.05;fill:#000000;fill-opacity:1;stroke:none"
       d="m 10,1025.3622 0,1 1,0 16.5,0 c 1,0 1.5,0.5002 1.5,1.5 l 0,-1 c 0,-0.9997 -0.5,-1.5 -1.5,-1.5 l -16.5,0 z"
       id="path3781"
       inkscape:connector-curvature="0"
       sodipodi:nodetypes="cccscsscc" />
    <path
       style="opacity:0.05;fill:#000000;fill-opacity:1;stroke:none"
       d="m 3.90625,1023.3622 c -0.4545454,0 -0.90625,0.5 -0.90625,1.5 l 0,1 c 0,-1 0.4517046,-1.5 0.90625,-1.5 l 5.1875,0 c 0.454546,0 0.90625,0.5 0.90625,1.5 l 0,-1 c 0,-1 -0.451704,-1.5 -0.90625,-1.5 l -5.1875,0 z"
       id="path3801"
       inkscape:connector-curvature="0" />
    <path
       style="opacity:1.0;fill:#634b43;fill-opacity:1;stroke:none"
       d="M 15.25 14 C 12.254602 14.07 10 16.1698 10 18.3125 C 10 20.4554 11.5 20.4375 12.25 20.4375 C 13 20.4375 13.75 20.41445 13.75 21.84375 C 13.75 23.27215 14.5 24 16 24 C 21.25 24 22 20.4285 22 19 C 22 16.8573 19.75 14 15.25 14 z M 14 15 C 14.552285 15 15 15.447715 15 16 C 15 16.552285 14.552285 17 14 17 C 13.447715 17 13 16.552285 13 16 C 13 15.447715 13.447715 15 14 15 z M 17 15 C 17.552285 15 18 15.447715 18 16 C 18 16.552285 17.552285 17 17 17 C 16.447715 17 16 16.552285 16 16 C 16 15.447715 16.447715 15 17 15 z M 12 17 C 12.552285 17 13 17.447715 13 18 C 13 18.552285 12.552285 19 12 19 C 11.447715 19 11 18.552285 11 18 C 11 17.447715 11.447715 17 12 17 z M 20 17 C 20.552285 17 21 17.447715 21 18 C 21 18.552285 20.552285 19 20 19 C 19.447715 19 19 18.552285 19 18 C 19 17.447715 19.447715 17 20 17 z M 16.5 20 C 17.328427 20 18 20.671573 18 21.5 C 18 22.328427 17.328427 23 16.5 23 C 15.671573 23 15 22.328427 15 21.5 C 15 20.671573 15.671573 20 16.5 20 z "
       transform="translate(0,1020.3622)"
       id="path3843" />
  </g>
</svg>

<!-- Created with Inkscape (http://www.inkscape.org/) -->
<svg xmlns="http://www.w3.org/2000/svg" viewBox="0 0 32 32">
 <g transform="translate(0,-1020.3622)">
  <path d="m 4 1025.36 23.5 0 c 1 0 1.5 0.5 1.5 1.5 l 0 3.499 c 0 0.554 -0.474 0.5 -1 0.5 l -24 0 c -0.526 0 -1 -0.446 -1 -1 l 0 -4.499 z" style="fill:#5d4037;fill-opacity:1;stroke:none"/>
  <path d="m 3 1028.36 0 2.5 26 0 0 -2.5 z" style="fill:#000;opacity:0.03;fill-opacity:1;stroke:none"/>
  <path d="m 3 1027.36 0 -2.5 c 0 -1 0.455 -1.5 0.909 -1.5 l 5.182 0 c 0.455 0 0.909 0.5 0.909 1.5 l 0 2.5 z" style="fill:#5d4037;fill-opacity:1;stroke:none"/>
  <rect width="30" height="20" x="1" y="1029.36" rx="2" ry="1.667" style="fill:#8d6e63;fill-opacity:1;stroke:none"/>
  <path d="m 3 1029.36 c -1.108 0 -2 0.748 -2 1.672 l 0 1 c 0 -0.923 0.892 -1.672 2 -1.672 l 26 0 c 1.108 0 2 0.748 2 1.672 l 0 -1 c 0 -0.923 -0.892 -1.672 -2 -1.672 l -26 0 z" style="fill:#fff;opacity:0.1;fill-opacity:1;stroke:none"/>
  <path d="m 10 1025.36 0 1 1 0 16.5 0 c 1 0 1.5 0.5 1.5 1.5 l 0 -1 c 0 -1 -0.5 -1.5 -1.5 -1.5 l -16.5 0 z" style="fill:#000;opacity:0.05;fill-opacity:1;stroke:none"/>
  <path d="m 3.906 1023.36 c -0.455 0 -0.906 0.5 -0.906 1.5 l 0 1 c 0 -1 0.452 -1.5 0.906 -1.5 l 5.188 0 c 0.455 0 0.906 0.5 0.906 1.5 l 0 -1 c 0 -1 -0.452 -1.5 -0.906 -1.5 l -5.188 0 z" style="fill:#000;opacity:0.05;fill-opacity:1;stroke:none"/>
  <path d="m 15.25 14 c -2.995 0.07 -5.25 2.17 -5.25 4.313 c 0 2.143 1.5 2.125 2.25 2.125 c 0.75 0 1.5 -0.023 1.5 1.406 c 0 1.428 0.75 2.156 2.25 2.156 c 5.25 0 6 -3.572 6 -5 c 0 -2.143 -2.25 -5 -6.75 -5 z m -1.25 1 c 0.552 0 1 0.448 1 1 c 0 0.552 -0.448 1 -1 1 c -0.552 0 -1 -0.448 -1 -1 c 0 -0.552 0.448 -1 1 -1 z m 3 0 c 0.552 0 1 0.448 1 1 c 0 0.552 -0.448 1 -1 1 c -0.552 0 -1 -0.448 -1 -1 c 0 -0.552 0.448 -1 1 -1 z m -5 2 c 0.552 0 1 0.448 1 1 c 0 0.552 -0.448 1 -1 1 c -0.552 0 -1 -0.448 -1 -1 c 0 -0.552 0.448 -1 1 -1 z m 8 0 c 0.552 0 1 0.448 1 1 c 0 0.552 -0.448 1 -1 1 c -0.552 0 -1 -0.448 -1 -1 c 0 -0.552 0.448 -1 1 -1 z m -3.5 3 c 0.828 0 1.5 0.672 1.5 1.5 c 0 0.828 -0.672 1.5 -1.5 1.5 c -0.828 0 -1.5 -0.672 -1.5 -1.5 c 0 -0.828 0.672 -1.5 1.5 -1.5 z" transform="translate(0,1020.3622)" style="fill:#634b43;opacity:1;fill-opacity:1;stroke:none"/>
 </g>
</svg>
